X: 29422
T: Niel Gow's Style
R: strathspey
M: 4/4
K: Edorian
a|f<Bf>e f>B B<a|f<Bf>e a>c c<a|f<Bf>e e>cd>B|
A>F E<A C>A,A,:|C|B,/F/B DB F>B, B<D|B,/F/B DB A>A, A,<C|
B,/F/B DB F<Bd>B|A>F E<A C>A,A,C|B,/F/B DB F>B, B<D|
B,/F/B DB A>A, A,<C|B,/F/B DB F>B d<f|a/^g/f/e/ a>e cAA||

